dhis-2/dhis-support/dhis-support-system/src/main/resources/SVGs/odontology_implant_outline.svg

<?xml version="1.0" encoding="UTF-8" standalone="no"?>
<!-- Created with Inkscape (http://www.inkscape.org/) -->
<svg id="svg8" xmlns:rdf="http://www.w3.org/1999/02/22-rdf-syntax-ns#" xmlns="http://www.w3.org/2000/svg" height="48" viewBox="0 0 12.7 12.7" width="48" version="1.1" xmlns:cc="http://creativecommons.org/ns#" xmlns:dc="http://purl.org/dc/elements/1.1/">
 <title id="title4753">UIO-icon</title>
 <metadata id="metadata5">
  <rdf:RDF>
   <cc:Work rdf:about="">
    <dc:format>image/svg+xml</dc:format>
    <dc:type rdf:resource="http://purl.org/dc/dcmitype/StillImage"/>
    <dc:title>UIO-icon</dc:title>
    <dc:creator>
     <cc:Agent>
      <dc:title>Joaquín Urbano</dc:title>
     </cc:Agent>
    </dc:creator>
    <dc:rights>
     <cc:Agent>
      <dc:title>GPL</dc:title>
     </cc:Agent>
    </dc:rights>
   </cc:Work>
  </rdf:RDF>
 </metadata>
 <path id="path3196" d="m34.705 4.0176c-2.771-0.048-6.361 0.9268-10.76 3.2109-14.932-7.7116-20.118-0.0855-16.66 11.622 0.0011 0.003 0.00095321 0.006766 0.0019531 0.009766 0.0148 0.049999 0.027869 0.098438 0.042969 0.14844 0.0021 0.007 0.0037593 0.013484 0.0058594 0.021484 0.062599 0.207 0.13523 0.41891 0.20312 0.62891 0.00089999 0.002 0.003006 0.005812 0.0039063 0.007813 0.47469 1.413 1.0552 2.8721 1.7637 4.3711 0.036099 0.072999 0.068116 0.1477 0.10352 0.2207 3.5998 0.026 4.9774 0.020344 7.2344 0.027344l0.88672 4.832 13.482-3.6562 0.23438-1.1191c2.029 0.008 3.1814 0.001344 6.2754 0.027344 6.466-10.855 5.496-20.208-2.817-20.352zm-0.519 0.5488c0.38654-0.018561 0.75572-0.015884 1.1055 0.0097656 4.9428 0.43791 6.6029 5.0277 5.627 9.2656-0.87086 4.1983-1.5508 6.109-3.7129 10.012-1.103 0.035-2.742-0.006344-6.3789-0.027344-0.080147 0.40892-0.14532 0.72255-0.21094 1.2129-0.87281 0.27537-11.723 3.2007-12.686 3.3848-0.271-1.093-0.77148-4.6523-0.77148-4.6523-2.721-0.071999-4.9628-0.01525-7.4277-0.03125-0.9834-2.256-2.3185-6.185-2.8658-9.919-0.3358-12.318 8.9158-9.8111 17.061-6.0544 3.979-1.885 7.554-3.0713 10.26-3.2012zm-25.772 17.491c0.2927 0.725 0.6076 1.457 0.9589 2.201-0.3515-0.744-0.6678-1.477-0.9589-2.201zm22.213 5.2656-12.789 3.4668 0.41992 2.2949 11.836-3.2109zm-0.674 0.698-0.287 1.436-11.01 2.986-0.23-1.295zm-0.25 3.7148-11.139 3.0176 0.42188 2.2949 10.184-2.7617zm-0.67773 0.71094-0.29688 1.4297-9.3418 2.5273l-0.23-1.295zm-0.244 3.701l-9.4883 2.5723 0.41992 2.2949 8.5352-2.3125zm-0.67773 0.71289-0.29688 1.4297l-7.689 2.098-0.23-1.295zm-0.244 3.701l-7.8379 2.125 0.25195 1.375h6.8535zm-7.2492 2.4983 6.5713-1.7863-0.47482 2.2865-6.0078-0.021731z" transform="scale(.26458)" stroke-width=".99999" fill="#333"/>
</svg>

<svg width="48" height="48" viewBox="0 0 48 48" fill="none" xmlns="http://www.w3.org/2000/svg">
<path d="M34.7046 4.01755C31.9337 3.96956 28.3437 4.94434 23.9447 7.22841C9.01293 -0.483084 3.827 7.14292 7.28496 18.8503C7.28606 18.8533 7.28591 18.857 7.28691 18.86C7.30171 18.91 7.31478 18.9585 7.32988 19.0085C7.33198 19.0155 7.33364 19.022 7.33574 19.03C7.39834 19.237 7.47097 19.4489 7.53885 19.6589C7.53975 19.6609 7.54186 19.6647 7.54276 19.6667C8.01744 21.0797 8.59795 22.5387 9.30644 24.0377C9.34254 24.1107 9.37455 24.1854 9.40996 24.2584C13.0097 24.2844 14.3873 24.2788 16.6443 24.2858L17.531 29.1177L31.0128 25.4615L31.2472 24.3425C33.2762 24.3505 34.4285 24.3438 37.5225 24.3698C43.9884 13.5149 43.0184 4.16205 34.7055 4.01806L34.7046 4.01755ZM34.1856 4.56635C34.5722 4.54779 34.9413 4.55046 35.2911 4.57611C40.2338 5.01402 41.8939 9.60375 40.918 13.8416C40.0472 18.0398 39.3673 19.9505 37.2052 23.8535C36.1022 23.8885 34.4632 23.8471 30.8264 23.8261C30.7462 24.235 30.681 24.5487 30.6154 25.039C29.7426 25.3144 18.8926 28.2397 17.9296 28.4238C17.6586 27.3308 17.1581 23.7715 17.1581 23.7715C14.4371 23.6995 12.1954 23.7563 9.73051 23.7403C8.74712 21.4843 7.41203 17.5554 6.86474 13.8214C6.52895 1.50356 15.7804 4.01043 23.9255 7.76708C27.9045 5.8821 31.4794 4.69582 34.1854 4.56592L34.1856 4.56635ZM8.41394 22.0571C8.70664 22.7821 9.02153 23.5141 9.37283 24.2581C9.02133 23.5141 8.70504 22.7811 8.41394 22.0571ZM30.6267 27.3227L17.8378 30.7894L18.2577 33.0843L30.0936 29.8734L30.6267 27.3227ZM29.9527 28.0207L29.6657 29.4566L18.6558 32.4426L18.4258 31.1476L29.9527 28.0207ZM29.7027 31.7354L18.5638 34.753L18.9857 37.0478L29.1696 34.2862L29.7027 31.7354ZM29.025 32.4463L28.7281 33.876L19.3864 36.4033L19.1564 35.1083L29.025 32.4463ZM28.781 36.1473L19.2928 38.7196L19.7127 41.0144L28.2478 38.702L28.781 36.1473ZM28.1032 36.8602L27.8064 38.2899L20.1175 40.3878L19.8875 39.0928L28.1032 36.8602ZM27.8592 40.5611L20.0214 42.6861L20.2734 44.0611H27.1268L27.8592 40.5611ZM20.6101 43.0594L27.1814 41.2731L26.7065 43.5596L20.6988 43.5379L20.6101 43.0594Z" fill="#333333"/>
</svg>
